images/facebook_white.svg

<svg width="16" height="16" viewBox="0 0 16 16" fill="none" xmlns="http://www.w3.org/2000/svg">
<path fill-rule="evenodd" clip-rule="evenodd" d="M8 0C3.58172 0 0 3.58172 0 8C0 12.4182 3.58172 16 8 16C12.4183 16 16 12.4182 16 8C16 3.58172 12.4183 0 8 0ZM8.83551 8.3514V12.7038H7.03468V8.35157H6.13499V6.8517H7.03468V5.95119C7.03468 4.72759 7.54271 4 8.98606 4H10.1877V5.50004H9.43658C8.87472 5.50004 8.83755 5.70964 8.83755 6.10083L8.83551 6.85153H10.1962L10.037 8.3514H8.83551Z" fill="#4F4F4F"/>
</svg>

<svg xmlns="http://www.w3.org/2000/svg" width="16" height="16" fill="none"><path fill="#4F4F4F" fill-rule="evenodd" d="M8 0a8 8 0 1 0 0 16A8 8 0 0 0 8 0m.836 8.351v4.353H7.035V8.352h-.9v-1.5h.9v-.9C7.035 4.727 7.543 4 8.986 4h1.202v1.5h-.751c-.562 0-.6.21-.6.6l-.001.752h1.36l-.159 1.5z" clip-rule="evenodd"/></svg>
